www/assets/icons/settings_suggest.svg

<svg width="24" height="24" viewBox="0 0 24 24" xmlns="http://www.w3.org/2000/svg" fill='currentColor'><path d="M17 6.59L14.59 5.5L17 4.41L18.09 2L19.18 4.41L21.59 5.5L19.18 6.59L18.09 9L17 6.59ZM20.87 12.72L20.09 11L19.31 12.72L17.59 13.5L19.31 14.28L20.09 16L20.87 14.28L22.59 13.5L20.87 12.72ZM15.83 14.37L17.77 15.84L15.27 20.17L13.03 19.23C12.83 19.36 12.61 19.49 12.39 19.6L12.09 22H7.09003L6.79003 19.59C6.57003 19.48 6.36003 19.36 6.15003 19.22L3.91003 20.16L1.41003 15.83L3.35003 14.36C3.34003 14.25 3.34003 14.12 3.34003 14C3.34003 13.88 3.34003 13.75 3.35003 13.63L1.41003 12.16L3.91003 7.83L6.15003 8.77C6.35003 8.64 6.57003 8.51 6.79003 8.4L7.09003 6H12.09L12.39 8.41C12.61 8.52 12.82 8.64 13.03 8.78L15.27 7.84L17.77 12.17L15.83 13.64C15.84 13.76 15.84 13.88 15.84 14.01C15.84 14.14 15.84 14.25 15.83 14.37ZM12.59 14C12.59 12.34 11.25 11 9.59003 11C7.93003 11 6.59003 12.34 6.59003 14C6.59003 15.66 7.93003 17 9.59003 17C11.25 17 12.59 15.66 12.59 14Z"/></svg>

<svg xmlns="http://www.w3.org/2000/svg" width="24" height="24" viewBox="0 0 24 24" fill='currentColor'><path d="M17 6.59 14.59 5.5 17 4.41 18.09 2l1.09 2.41 2.41 1.09-2.41 1.09L18.09 9zm3.87 6.13L20.09 11l-.78 1.72-1.72.78 1.72.78.78 1.72.78-1.72 1.72-.78zm-5.04 1.65 1.94 1.47-2.5 4.33-2.24-.94c-.2.13-.42.26-.64.37l-.3 2.4h-5l-.3-2.41c-.22-.11-.43-.23-.64-.37l-2.24.94-2.5-4.33 1.94-1.47c-.01-.11-.01-.24-.01-.36s0-.25.01-.37l-1.94-1.47 2.5-4.33 2.24.94c.2-.13.42-.26.64-.37l.3-2.4h5l.3 2.41c.22.11.43.23.64.37l2.24-.94 2.5 4.33-1.94 1.47c.01.12.01.24.01.37s0 .24-.01.36M12.59 14c0-1.66-1.34-3-3-3s-3 1.34-3 3 1.34 3 3 3 3-1.34 3-3"/></svg>
